modules/themify-icons/icons/layout-grid4-alt.svg

<?xml version="1.0" encoding="utf-8"?>
<!-- Generated by IcoMoon.io -->
<!DOCTYPE svg PUBLIC "-//W3C//DTD SVG 1.1//EN" "http://www.w3.org/Graphics/SVG/1.1/DTD/svg11.dtd">
<svg version="1.1" xmlns="http://www.w3.org/2000/svg" xmlns:xlink="http://www.w3.org/1999/xlink" width="17" height="17" viewBox="0 0 17 17">
<g>
</g>
	<path d="M1 1h3v3h-3v-3zM5 4h3v-3h-3v3zM9 4h3v-3h-3v3zM13 1v3h3v-3h-3zM1 8h3v-3h-3v3zM5 8h3v-3h-3v3zM9 8h3v-3h-3v3zM13 8h3v-3h-3v3zM1 12h3v-3h-3v3zM5 12h3v-3h-3v3zM9 12h3v-3h-3v3zM13 12h3v-3h-3v3zM1 16h3v-3h-3v3zM5 16h3v-3h-3v3zM9 16h3v-3h-3v3zM13 16h3v-3h-3v3z" fill="#000000" />
</svg>

<svg xmlns="http://www.w3.org/2000/svg" width="17" height="17" viewBox="0 0 17 17"><path d="M1 1h3v3H1V1zm4 3h3V1H5v3zm4 0h3V1H9v3zm4-3v3h3V1h-3zM1 8h3V5H1v3zm4 0h3V5H5v3zm4 0h3V5H9v3zm4 0h3V5h-3v3zM1 12h3V9H1v3zm4 0h3V9H5v3zm4 0h3V9H9v3zm4 0h3V9h-3v3zM1 16h3v-3H1v3zm4 0h3v-3H5v3zm4 0h3v-3H9v3zm4 0h3v-3h-3v3z"/></svg>
